image/icon/Tomb_red.svg

<!--version="1.0" encoding="UTF-8"--><svg version="1.1" id="Layer_1" xmlns="http://www.w3.org/2000/svg" width="31" height="42" xml:space="preserve"><g id="PathID_100" transform="matrix(1, 0, 0, 1, 15.1, 20.8)"><path style="fill: rgb(0, 0, 0); fill-opacity: 1;" d="M3.6-17.35v8.7l5.25 5.8 1.65.35 3.6 6.85 1.05 10.55-9.8.5L0 21l-5.3-5.6-9.8-.5L-14 4.15l3.55-6.65 1.65-.35 5.25-5.8v-8.7l1.95-3.45h3.2l2 3.45M.45-18.8h-.9l-1.15 2v8.9L-7.8-1l-1.3.25-2.95 5.5-.85 8.15h5.35l-.5-2.05.25-4.15L-5.15.55l1.6-2.45 1.95-1.35.05 2.7L-3.2 14.7 0 18.1l3.25-3.4L1.6-.5v-2.75l2 1.35L5.15.45l2.7 6.25.25 4.15-.5 2.05h5.35l-.8-8-3-5.65L7.85-1 1.6-7.9v-8.9l-1.15-2"/><path style="fill: rgb(59, 129, 247); fill-opacity: 1;" d="M1.6-16.8v8.9L7.85-1l1.3.25 3 5.65.8 8H7.6l.5-2.05-.25-4.15L5.15.45 3.6-1.9l-2-1.35V-.5l1.65 15.2L0 18.1l-3.2-3.4L-1.55-.55l-.05-2.7-1.95 1.35-1.6 2.45L-7.8 6.7l-.25 4.15.5 2.05h-5.35l.85-8.15 2.95-5.5L-7.8-1l6.2-6.9v-8.9l1.15-2h.9l1.15 2"/></g></svg>

<?xml version="1.0" encoding="UTF-8"?>
<svg version="1.1" id="Layer_1" xmlns="http://www.w3.org/2000/svg" xmlns:xlink="http://www.w3.org/1999/xlink" width="31px" height="42px" xml:space="preserve">
<g id="PathID_100" transform="matrix(1, 0, 0, 1, 15.1, 20.8)">
<path style="fill:#000000;fill-opacity:1" d="M3.6 -17.35L3.6 -8.65L8.85 -2.85L10.5 -2.5L14.1 4.35L15.15 14.9L5.35 15.4L0 21L-5.3 15.4L-15.1 14.9L-14 4.15L-10.45 -2.5L-8.8 -2.85L-3.55 -8.65L-3.55 -17.35L-1.6 -20.8L1.6 -20.8L3.6 -17.35M0.45 -18.8L-0.45 -18.8L-1.6 -16.8L-1.6 -7.9L-7.8 -1L-9.1 -0.75L-12.05 4.75L-12.9 12.9L-7.55 12.9L-8.05 10.85L-7.8 6.7L-5.15 0.55L-3.55 -1.9L-1.6 -3.25L-1.55 -0.55L-3.2 14.7L0 18.1L3.25 14.7L1.6 -0.5L1.6 -3.25L3.6 -1.9L5.15 0.45L7.85 6.7L8.1 10.85L7.6 12.9L12.95 12.9L12.15 4.9L9.15 -0.75L7.85 -1L1.6 -7.9L1.6 -16.8L0.45 -18.8"/>
<path style="fill:#3b81f7;fill-opacity:1" d="M1.6 -16.8L1.6 -7.9L7.85 -1L9.15 -0.75L12.15 4.9L12.95 12.9L7.6 12.9L8.1 10.85L7.85 6.7L5.15 0.45L3.6 -1.9L1.6 -3.25L1.6 -0.5L3.25 14.7L0 18.1L-3.2 14.7L-1.55 -0.55L-1.6 -3.25L-3.55 -1.9L-5.15 0.55L-7.8 6.7L-8.05 10.85L-7.55 12.9L-12.9 12.9L-12.05 4.75L-9.1 -0.75L-7.8 -1L-1.6 -7.9L-1.6 -16.8L-0.45 -18.8L0.45 -18.8L1.6 -16.8"/>
</g>
</svg>
